raw/symbols/rpl.svg

<svg width="42" height="42" viewBox="0 0 42 42" fill="none" xmlns="http://www.w3.org/2000/svg">
<rect x="1" y="1" width="40" height="40" rx="20" fill="#FF916A"/>
<path d="M5.625 35.535L11.925 28.9805" stroke="#F3F3F3" stroke-linecap="round" stroke-linejoin="round"/>
<path d="M6.5249 36.9384L15.0749 28.043" stroke="#F3F3F3" stroke-linecap="round" stroke-linejoin="round"/>
<path d="M7.875 37.8749L14.175 31.3203" stroke="#F3F3F3" stroke-linecap="round" stroke-linejoin="round"/>
<path fill-rule="evenodd" clip-rule="evenodd" d="M30.3727 13.2791C30.3715 13.2242 30.3695 13.1692 30.3676 13.1141L30.3675 13.1119C30.367 13.098 30.3665 13.0842 30.3661 13.0704C30.3644 13.0219 30.3628 12.9735 30.3603 12.9248C30.3541 12.7993 30.3463 12.6732 30.3361 12.5466C30.3199 12.3437 30.1653 12.1828 29.9707 12.1657C29.8493 12.155 29.7287 12.1471 29.6085 12.1404C29.5612 12.1378 29.5143 12.1361 29.4674 12.1344C29.4538 12.1339 29.4403 12.1334 29.4267 12.1329C29.4136 12.1325 29.4006 12.132 29.3875 12.1315C29.3481 12.13 29.3087 12.1285 29.2695 12.1277C29.1821 12.1256 29.0953 12.125 29.0087 12.125C28.9943 12.125 28.9797 12.125 28.9653 12.1252C27.2396 12.134 25.6556 12.5756 24.0564 13.4859C24.0407 13.495 24.0251 13.5037 24.0094 13.5124C23.9969 13.5194 23.9843 13.5263 23.9718 13.5335C23.9668 13.5364 23.9619 13.5391 23.9569 13.5418C23.952 13.5445 23.947 13.5472 23.942 13.5501L23.9358 13.5547C22.6246 14.3166 21.3156 15.3919 19.9608 16.8043C19.8068 16.9649 19.6562 17.1275 19.5072 17.291L16.8743 17.4997C16.7973 17.5057 16.7237 17.5349 16.6623 17.5835L12.5329 20.8598C12.4015 20.964 12.3449 21.1417 12.3907 21.307C12.4363 21.4724 12.5747 21.5914 12.7391 21.6071L16.6137 21.9717L17.2271 22.6112C17.1497 22.8115 16.1567 26.4336 16.1567 26.4336C16.0967 26.5887 16.1313 26.7662 16.2449 26.8844C16.3213 26.9642 16.4237 27.0066 16.5279 27.0066C16.5781 27.0066 16.6289 26.9966 16.6775 26.9761L20.2986 25.8131L20.8938 26.4336L21.2436 30.4728C21.2584 30.6442 21.3728 30.7885 21.5314 30.836C21.568 30.8471 21.6052 30.8523 21.642 30.8523C21.7648 30.8523 21.8834 30.7933 21.9604 30.6878L25.1026 26.3829C25.1492 26.3189 25.1772 26.2422 25.183 26.1619L25.3772 23.4982C25.5486 23.3291 25.7184 23.1573 25.8866 22.9822C27.2424 21.5687 28.2745 20.2034 29.0055 18.8356L29.0083 18.8314C29.0101 18.8281 29.0117 18.8248 29.0134 18.8215C29.015 18.8182 29.0167 18.8149 29.0185 18.8116C29.05 18.7523 29.0802 18.693 29.1104 18.6335L29.1157 18.6231C29.9571 16.987 30.3659 15.3631 30.3747 13.5983C30.3749 13.581 30.3749 13.5639 30.3749 13.5466C30.3753 13.458 30.3747 13.3687 30.3727 13.2791ZM24.075 20.5523C25.0691 20.5523 25.875 19.7138 25.875 18.6795C25.875 17.6453 25.0691 16.8068 24.075 16.8068C23.0809 16.8068 22.275 17.6453 22.275 18.6795C22.275 19.7138 23.0809 20.5523 24.075 20.5523Z" fill="#F3F3F3"/>
<rect x="1" y="1" width="40" height="40" rx="20" stroke="#FED386" stroke-width="2"/>
</svg>

<svg xmlns="http://www.w3.org/2000/svg" width="42" height="42" fill="none"><rect width="40" height="40" x="1" y="1" fill="#FF916A" rx="20"/><path stroke="#F3F3F3" stroke-linecap="round" stroke-linejoin="round" d="m5.625 35.535 6.3-6.554M6.525 36.938l8.55-8.895M7.875 37.875l6.3-6.555"/><path fill="#F3F3F3" fill-rule="evenodd" d="m30.373 13.28-.005-.166v-.002l-.002-.042c-.002-.048-.003-.097-.006-.145a12.208 12.208 0 0 0-.024-.378.409.409 0 0 0-.365-.381c-.122-.011-.242-.019-.363-.026l-.14-.006-.041-.001-.04-.001-.117-.004a10.841 10.841 0 0 0-.261-.003h-.044c-1.725.009-3.31.45-4.909 1.36-.015.01-.03.019-.047.027l-.037.021a.555.555 0 0 1-.015.009l-.015.008-.006.005c-1.311.762-2.62 1.837-3.975 3.25-.154.16-.305.323-.454.486l-2.633.209a.39.39 0 0 0-.212.084l-4.13 3.276a.427.427 0 0 0-.141.447.405.405 0 0 0 .348.3l3.875.365.613.64c-.077.2-1.07 3.822-1.07 3.822a.43.43 0 0 0 .088.45.392.392 0 0 0 .432.092l3.622-1.163.595.62.35 4.04c.014.171.129.316.287.363a.395.395 0 0 0 .429-.148l3.143-4.305a.428.428 0 0 0 .08-.221l.194-2.664c.172-.169.341-.34.51-.516 1.355-1.413 2.387-2.779 3.119-4.146l.002-.005.005-.01a10.737 10.737 0 0 0 .097-.188l.006-.01c.841-1.636 1.25-3.26 1.259-5.025v-.051c0-.089 0-.178-.002-.268Zm-6.298 7.272c.994 0 1.8-.838 1.8-1.872 0-1.035-.806-1.873-1.8-1.873s-1.8.838-1.8 1.873c0 1.034.806 1.872 1.8 1.872Z" clip-rule="evenodd"/><rect width="40" height="40" x="1" y="1" stroke="#FED386" stroke-width="2" rx="20"/></svg>
